X:2
M:4/4
L:1/4
Q:1/2=105
K:G
e/f/ | g/f/e/d/gB | fAeA | fe/f/gG | FA2e/f/ |
g/f/e/d/gB | fAeA | dDcD | DG2 :|
g/f/e/d/da | B gAf | fe/f/ g d/c/ | Bg2 |]

